public/images/logo.svg

<svg viewBox="0 0 97 29.26368627101511" xmlns="http://www.w3.org/2000/svg" width="2500" height="754"><path d="M88.949 14.027h-3.433c-2.21 0-3.394 1.655-3.394 4.413v9.97h-6.511V14.026h-2.763c-2.21 0-3.393 1.655-3.393 4.413v9.97h-6.512V8.707h6.512v2.995c1.066-2.325 2.526-2.995 4.697-2.995h7.971v2.995c1.066-2.325 2.526-2.995 4.697-2.995h2.13v5.32zm-27.427 6.068H47.947c.355 2.207 1.736 3.468 4.064 3.468 1.736 0 2.96-.71 3.355-1.97l5.761 1.615c-1.42 3.428-4.933 5.517-9.116 5.517-7.064 0-10.3-5.478-10.3-10.166 0-4.61 2.841-10.127 9.905-10.127 7.498 0 9.984 5.595 9.984 9.733a20.11 20.11 0 0 1-.078 1.93zm-6.314-3.822c-.158-1.695-1.382-3.27-3.591-3.27-2.053 0-3.275.905-3.67 3.27zM30.347 28.409h5.721l7.143-19.7h-6.55l-3.473 11.465-3.552-11.466h-6.512zm-26.677 0h6.472V14.027H16.3V28.41h6.432V8.708H10.142V7.487c0-1.34.947-2.167 2.447-2.167h3.71V0h-4.775C6.827 0 3.67 2.877 3.67 7.092v1.616H0v5.32h3.67z" fill="#003912"/><path d="M92.975 29C95.198 29 97 27.2 97 24.98c0-2.22-1.802-4.019-4.025-4.019s-4.026 1.8-4.026 4.02c0 2.22 1.803 4.019 4.026 4.019z" fill="#1dbf73"/></svg>

<svg id="logo" xmlns="http://www.w3.org/2000/svg" width="97" height="29" viewBox="0 0 97 29">
  <path id="Trazado_1" data-name="Trazado 1" d="M88.949,14.027H85.516c-2.21,0-3.394,1.655-3.394,4.413v9.97H75.611V14.026H72.848c-2.21,0-3.393,1.655-3.393,4.413v9.97H62.943V8.707h6.512V11.7a4.522,4.522,0,0,1,4.7-2.995h7.971V11.7a4.522,4.522,0,0,1,4.7-2.995h2.13v5.32ZM61.522,20.1H47.947a3.77,3.77,0,0,0,4.064,3.468c1.736,0,2.96-.71,3.355-1.97l5.761,1.615c-1.42,3.428-4.933,5.517-9.116,5.517a9.922,9.922,0,0,1-10.3-10.166c0-4.61,2.841-10.127,9.9-10.127,7.5,0,9.984,5.6,9.984,9.733q.007.966-.078,1.93Zm-6.314-3.822A3.472,3.472,0,0,0,51.617,13c-2.053,0-3.275.9-3.67,3.27ZM30.347,28.409h5.721l7.143-19.7h-6.55L33.188,20.174,29.636,8.708H23.124Zm-26.677,0h6.472V14.027H16.3V28.41h6.432V8.708H10.142V7.487A2.154,2.154,0,0,1,12.589,5.32H16.3V0H11.524C6.827,0,3.67,2.877,3.67,7.092V8.708H0v5.32H3.67Z" fill="#33353a"/>
  <path id="Trazado_2" data-name="Trazado 2" d="M92.975,29a4.02,4.02,0,1,0-4.026-4.019A4.023,4.023,0,0,0,92.975,29Z" fill="#1dbf73"/>
</svg>
